X:23
T: Es hat ein Bauer ein Tchterlein (Band 1), S. 68
N: P0897
O: Lothringen
S: PINCK, Louis: Verklingende Weisen, Bd 1, Metz 1928]
R: Liebe, Werbung, Tod]
M: 3/8
L: 1/8
K: F
C | FFG | AAF | G2G | D2
G | DDE | FED | D2C | C2
C | FFG | AGG | GFE | F2

@@@ Tune index: 7573
